!!!!SEGMENT: pl-wtm--r-612-m--007_moniuszko-stanislaw--libella-albo-zemsta-owadu-no-17.krn
!!!cenid: 18xx:3056
!!!COM: Moniuszko, Stanisław
!!!COM-rismID:
!!!CDT: 1819/05/05-1872/06/04
!!!CNT: Polish
!!!GTL: Libella albo Zemsta Owadu
!!!OTL: No. 17
!!!PDT: 1871
!!!AGN: Secular
!!!SMS-siglum: PL-Wtm
!!!SMS-shelfmark: R 612/M
!!!SMS-shelfwork: 007 G
!!!SMS-variant:
!!!SMS-altvar:
!!!NIFC-rismSourceID: 1001090829
!!!NIFC-islandoraID:
!!!URL-pdf-islandora:
!!!URL-scan:
!!!ONB-nifc: UWAGA: skany 0050-0054
!!!AIN: 1 cello 1 clars 2 cor 4 empty 1 fagot 1 flt 1 oboe 1 picco 1 timpa 2 tromt 1 viola 2 violn
!!!key:
**kern	**dynam	**kern	**dynam	**kern	**dynam	**kern	**dynam	**kern	**dynam	**kern	**kern	**kern	**dynam	**kern	**dynam	**kern	**dynam	**kern	**dynam	**kern	**dynam	**kern	**dynam	**kern	**dynam	**kern	**dynam	**kern	**dynam	**kern	**dynam	**kern	**dynam
*part18	*part18	*part17	*part17	*part16	*part16	*part15	*part15	*part14	*part14	*part13	*part12	*part11	*part11	*part10	*part10	*part9	*part9	*part8	*part8	*part7	*part7	*part6	*part6	*part5	*part5	*part4	*part4	*part3	*part3	*part2	*part2	*part1	*part1
*staff18	*	*staff17	*	*staff16	*	*staff15	*	*staff14	*	*staff13	*staff12	*staff11	*	*staff10	*	*staff9	*	*staff8	*	*staff7	*	*staff6	*	*staff5	*	*staff4	*	*staff3	*	*staff2	*	*staff1	*
*Iempty	*	*Icello	*	*Iviola	*	*Ivioln	*	*Ivioln	*	*Iempty	*Iempty	*Itimpa	*	*Itromt	*	*Itromt	*	*Iempty	*	*Icor	*	*Icor	*	*Ifagot	*	*Iclars	*	*Ioboe	*	*Ipicco	*	*Iflt	*
*I"Cb.	*	*I"Vcelli	*	*I"Vla.	*	*I"V. 2	*	*I"V. I.	*	*I"Piatti Gr Cas	*I"Tamburo Triangolo	*I"Timp.	*	*I"Trboni.	*	*I"Trboni.	*	*I"Tromba in a.	*	*I"Corni	*	*I"Corni	*	*I"Fag.	*	*I"Clar. in A.	*	*I"Oboi.	*	*I"Pic.	*	*I"Flauto.	*
*clefF4	*	*clefF4	*	*clefC3	*	*clefG2	*	*clefG2	*	*clefC3	*clefG2	*clefF4	*	*clefF4	*	*clefC4	*	*clefG2	*	*clefG2	*	*clefG2	*	*clefC4	*	*clefG2	*	*clefG2	*	*clefG2	*	*clefG2	*
*ITrd0c0	*	*	*	*	*	*	*	*	*	*ITrd0c0	*ITrd0c0	*	*	*	*	*	*	*ITrd2c3	*	*ITrd4c7	*	*ITrd4c7	*	*	*	*ITrd2c3	*	*	*	*ITrd0c0	*	*	*
*k[f#c#g#]	*	*k[f#c#g#]	*	*k[f#c#g#]	*	*k[f#c#g#]	*	*k[f#c#g#]	*	*k[]	*k[]	*k[]	*	*k[f#c#g#]	*	*k[f#c#g#]	*	*k[f#c#g#]	*	*k[b-]	*	*k[b-]	*	*k[f#c#g#]	*	*k[f#c#g#]	*	*k[f#c#g#]	*	*k[f#c#g#]	*	*k[f#c#g#]	*
*E:	*	*E:	*	*E:	*	*E:	*	*E:	*	*E:	*E:	*E:	*	*E:	*	*E:	*	*E:	*	*E:	*	*E:	*	*E:	*	*E:	*	*E:	*	*E:	*	*E:	*
*	*	*	*	*	*	*	*	*	*	*	*	*	*	*	*	*	*	*	*	*	*	*	*	*	*	*	*	*	*	*	*	*	*
*M4/4	*	*M4/4	*	*M4/4	*	*M4/4	*	*M4/4	*	*M4/4	*M4/4	*M4/4	*	*M4/4	*	*M4/4	*	*M4/4	*	*M4/4	*	*M4/4	*	*M4/4	*	*M4/4	*	*M4/4	*	*M4/4	*	*M4/4	*
*met(c)	*	*met(c)	*	*met(c)	*	*met(c)	*	*met(c)	*	*met(c)	*met(c)	*met(c)	*	*met(c)	*	*met(c)	*	*met(c)	*	*met(c)	*	*met(c)	*	*met(c)	*	*met(c)	*	*met(c)	*	*met(c)	*	*met(c)	*
=1	=1	=1	=1	=1	=1	=1	=1	=1	=1	=1	=1	=1	=1	=1	=1	=1	=1	=1	=1	=1	=1	=1	=1	=1	=1	=1	=1	=1	=1	=1	=1	=1	=1
*	*	*	*	*	*	*	*	*	*	*	*	*	*	*	*	*	*	*^	*	*	*	*	*	*	*	*	*	*	*	*	*	*	*
!	!	!	!	!	!	!	!	!	!	!	!	!	!	!	!	!	!	!	!	!	!	!	!	!	!	!	!	!	!	!	!	!	!LO:TX:i:a:t=No 17. Divertiſsement.	!
!	!	!	!	!	!	!	!	!	!	!LO:TX:a:t=P:problem=nazwa instrumentu pojawia się dopiero w 7 takcie	!LO:TX:a:t=P:problem=nazwa instrumentu pojawia się dopiero w 7 takcie	!	!	!	!	!	!	!	!	!	!	!	!	!	!	!	!	!	!	!	!	!	!LO:TX:a:t=P:problem=nawy instrumentów zaczerpnięte z poprzedniej części (No. 16)	!
!	!	!	!	!	!	!	!	!	!	!	!	!	!	!	!	!	!	!	!	!	!	!	!	!	!	!	!	!	!	!	!	!	!LO:TX:t=P:problem=all\right&colon; global	!
!	!	!	!	!	!	!	!LO:DY:b:rj	!LO:TX:i:a:t=Allegro	!LO:DY:b:rj	!	!	!	!LO:DY:b:rj	!	!LO:DY:b:rj	!	!LO:DY:b:rj	!	!	!LO:DY:b:rj	!LO:TX:i:a:t=Allegro.	!	!	!	!	!	!	!	!	!	!	!	!LO:TX:i:a:t=Allegro.	!
!	!LO:DY:b:rj	!	!LO:DY:b:rj	!LO:TX:t=P:problem=znaki przykluczowe&colon; F#,c#,G#	!LO:DY:b:rj	!LO:TX:t=P:problem=znaki przykluczowe&colon; f#,cc#,g#	!	!LO:TX:t=P:problem=znaki przykluczowe&colon; f#,cc#,g#	!	!	!	!	!	!	!	!	!	!	!	!	!	!	!	!	!	!	!	!	!	!	!	!	!LO:TX:t=P:problem=znaki przykluczowe&colon; f#,cc#,g#	!
8E^>\	f	8E^>\	f	8d 8B^>\	f	8d 8B^</	f	8e 8G#^</	f	1ryy	1ryy	8E\	sf	8E 8EE/	sf	8B 8G#\	sf	8e/	8e\	sf	1ryy	.	8e 8G#X/	.	8B 8BB/	.	1r	.	1r	.	1r	.	1r	.
!	!	!	!	!	!	!LO:TX:i:a:t=Col V. Io	!	!	!	!	!	!	!	!	!	!	!	!	!	!	!	!	!	!	!	!	!	!	!	!	!	!	!	!
8ryy	.	8r	.	16E/LL	.	16e/LLyy	.	16e/LL	.	.	.	8r	.	8r	.	8r	.	8r	8ryy	.	.	.	8r	.	8r	.	.	.	.	.	.	.	.	.
.	.	.	.	16G#/JJ	.	16g#/JJyy	.	16g#/JJ	.	.	.	.	.	.	.	.	.	.	.	.	.	.	.	.	.	.	.	.	.	.	.	.	.	.
4ryy	.	4r	.	8B/L	.	16b/LLyy	.	16b/LL	.	.	.	4r	.	4r	.	4r	.	4r	4ryy	.	.	.	4r	.	4r	.	.	.	.	.	.	.	.	.
.	.	.	.	.	.	16a/yy	.	16a/	.	.	.	.	.	.	.	.	.	.	.	.	.	.	.	.	.	.	.	.	.	.	.	.	.	.
.	.	.	.	8g#/J	.	16g#/yy	.	16g#/	.	.	.	.	.	.	.	.	.	.	.	.	.	.	.	.	.	.	.	.	.	.	.	.	.	.
.	.	.	.	.	.	16b/JJyy	.	16b/JJ	.	.	.	.	.	.	.	.	.	.	.	.	.	.	.	.	.	.	.	.	.	.	.	.	.	.
!LO:N:vis=1	!	!	!	!	!	!	!	!	!	!	!	!	!	!	!	!	!	!	!	!	!	!	!	!	!	!	!	!	!	!	!	!	!	!
2r	.	2r	.	8d^</L	.	16dd\LLyy	.	16dd\LL	.	.	.	2r	.	2r	.	2r	.	2r	2ryy	.	.	.	2r	.	2r	.	.	.	.	.	.	.	.	.
.	.	.	.	.	.	16ee\yy	.	16ee\	.	.	.	.	.	.	.	.	.	.	.	.	.	.	.	.	.	.	.	.	.	.	.	.	.	.
.	.	.	.	16d#X/L	.	16dd#X\yy	.	16dd#X\	.	.	.	.	.	.	.	.	.	.	.	.	.	.	.	.	.	.	.	.	.	.	.	.	.	.
.	.	.	.	16e/JJ	.	16ee\JJyy	.	16ee\JJ	.	.	.	.	.	.	.	.	.	.	.	.	.	.	.	.	.	.	.	.	.	.	.	.	.	.
.	.	.	.	16f#\LL	.	16ff#\LLyy	.	16ff#\LL	.	.	.	.	.	.	.	.	.	.	.	.	.	.	.	.	.	.	.	.	.	.	.	.	.	.
.	.	.	.	16e\	.	16ee\yy	.	16ee\	.	.	.	.	.	.	.	.	.	.	.	.	.	.	.	.	.	.	.	.	.	.	.	.	.	.
.	.	.	.	16g#\	.	16gg#\yy	.	16gg#\	.	.	.	.	.	.	.	.	.	.	.	.	.	.	.	.	.	.	.	.	.	.	.	.	.	.
.	.	.	.	16a\JJ	.	16aa\JJyy	.	16aa\JJ	.	.	.	.	.	.	.	.	.	.	.	.	.	.	.	.	.	.	.	.	.	.	.	.	.	.
*	*	*	*	*	*	*	*	*	*	*	*	*	*	*	*	*	*	*v	*v	*	*	*	*	*	*	*	*	*	*	*	*	*	*	*
!!LO:PB:g=original
=2	=2	=2	=2	=2	=2	=2	=2	=2	=2	=2	=2	=2	=2	=2	=2	=2	=2	=2	=2	=2	=2	=2	=2	=2	=2	=2	=2	=2	=2	=2	=2	=2	=2
1r	.	1r	.	16b\LL	.	16bb\LLyy	.	16bb\LL	.	1ryy	1ryy	1r	.	1r	.	1r	.	1r	.	1r	.	1r	.	1r	.	1r	.	1r	.	1ryy	.	1r	.
.	.	.	.	16cc#\	.	16ccc#\yy	.	16ccc#\	.	.	.	.	.	.	.	.	.	.	.	.	.	.	.	.	.	.	.	.	.	.	.	.	.
.	.	.	.	16b\	.	16bb\yy	.	16bb\	.	.	.	.	.	.	.	.	.	.	.	.	.	.	.	.	.	.	.	.	.	.	.	.	.
.	.	.	.	16cc#\JJ	.	16ccc#\JJyy	.	16ccc#\JJ	.	.	.	.	.	.	.	.	.	.	.	.	.	.	.	.	.	.	.	.	.	.	.	.	.
.	.	.	.	16dd\LL	.	16ddd\LLyy	.	16ddd\LL	.	.	.	.	.	.	.	.	.	.	.	.	.	.	.	.	.	.	.	.	.	.	.	.	.
.	.	.	.	16ee\	.	16ccc#\yy	.	16ccc#\	.	.	.	.	.	.	.	.	.	.	.	.	.	.	.	.	.	.	.	.	.	.	.	.	.
.	.	.	.	16dd\	.	16ddd\yy	.	16ddd\	.	.	.	.	.	.	.	.	.	.	.	.	.	.	.	.	.	.	.	.	.	.	.	.	.
.	.	.	.	16ee\JJ	.	16eee\JJyy	.	16eee\JJ	.	.	.	.	.	.	.	.	.	.	.	.	.	.	.	.	.	.	.	.	.	.	.	.	.
.	.	.	.	16ff#^>\LL	.	16fff#^>\LLyy	.	16fff#^>\LL	.	.	.	.	.	.	.	.	.	.	.	.	.	.	.	.	.	.	.	.	.	.	.	.	.
.	.	.	.	16ee\	.	16eee\yy	.	16eee\	.	.	.	.	.	.	.	.	.	.	.	.	.	.	.	.	.	.	.	.	.	.	.	.	.
.	.	.	.	16dd\	.	16ddd\yy	.	16ddd\	.	.	.	.	.	.	.	.	.	.	.	.	.	.	.	.	.	.	.	.	.	.	.	.	.
.	.	.	.	16cc#\JJ	.	16ccc#\JJyy	.	16ccc#\JJ	.	.	.	.	.	.	.	.	.	.	.	.	.	.	.	.	.	.	.	.	.	.	.	.	.
.	.	.	.	16b\LL	.	16bb\LLyy	.	16bb\LL	.	.	.	.	.	.	.	.	.	.	.	.	.	.	.	.	.	.	.	.	.	.	.	.	.
.	.	.	.	16a\	.	16aa\yy	.	16aa\	.	.	.	.	.	.	.	.	.	.	.	.	.	.	.	.	.	.	.	.	.	.	.	.	.
.	.	.	.	16g#\	.	16gg#\yy	.	16gg#\	.	.	.	.	.	.	.	.	.	.	.	.	.	.	.	.	.	.	.	.	.	.	.	.	.
.	.	.	.	16b\JJ	.	16bb\JJyy	.	16bb\JJ	.	.	.	.	.	.	.	.	.	.	.	.	.	.	.	.	.	.	.	.	.	.	.	.	.
=3	=3	=3	=3	=3	=3	=3	=3	=3	=3	=3	=3	=3	=3	=3	=3	=3	=3	=3	=3	=3	=3	=3	=3	=3	=3	=3	=3	=3	=3	=3	=3	=3	=3
1r	.	1r	.	16dd^>\LL	.	16ddd^>\LLyy	.	16ddd^>\LL	.	1ryy	1ryy	1ryy	.	1ryy	.	1ryy	.	1ryy	.	1ryy	.	1ryy	.	1r	.	1ryy	.	1ryy	.	1ryy	.	1ryy	.
.	.	.	.	16cc#\	.	16ccc#\yy	.	16ccc#\	.	.	.	.	.	.	.	.	.	.	.	.	.	.	.	.	.	.	.	.	.	.	.	.	.
.	.	.	.	16b\	.	16bb\yy	.	16bb\	.	.	.	.	.	.	.	.	.	.	.	.	.	.	.	.	.	.	.	.	.	.	.	.	.
.	.	.	.	16a\JJ	.	16aa\JJyy	.	16aa\JJ	.	.	.	.	.	.	.	.	.	.	.	.	.	.	.	.	.	.	.	.	.	.	.	.	.
.	.	.	.	16g#\LL	.	16gg#\LLyy	.	16gg#\LL	.	.	.	.	.	.	.	.	.	.	.	.	.	.	.	.	.	.	.	.	.	.	.	.	.
.	.	.	.	16f#\	.	16ff#\yy	.	16ff#\	.	.	.	.	.	.	.	.	.	.	.	.	.	.	.	.	.	.	.	.	.	.	.	.	.
.	.	.	.	16e\	.	16ee\yy	.	16ee\	.	.	.	.	.	.	.	.	.	.	.	.	.	.	.	.	.	.	.	.	.	.	.	.	.
.	.	.	.	16f#\JJ	.	16ff#\JJyy	.	16ff#\JJ	.	.	.	.	.	.	.	.	.	.	.	.	.	.	.	.	.	.	.	.	.	.	.	.	.
.	.	.	.	16g#^>\LL	.	16gg#^>\LLyy	.	16gg#^>\LL	.	.	.	.	.	.	.	.	.	.	.	.	.	.	.	.	.	.	.	.	.	.	.	.	.
.	.	.	.	16f#\	.	16ff#\yy	.	16ff#\	.	.	.	.	.	.	.	.	.	.	.	.	.	.	.	.	.	.	.	.	.	.	.	.	.
.	.	.	.	16e\	.	16ee\yy	.	16ee\	.	.	.	.	.	.	.	.	.	.	.	.	.	.	.	.	.	.	.	.	.	.	.	.	.
.	.	.	.	16d\JJ	.	16dd\JJyy	.	16dd\JJ	.	.	.	.	.	.	.	.	.	.	.	.	.	.	.	.	.	.	.	.	.	.	.	.	.
.	.	.	.	16c#\LL	.	16cc#/LLyy	.	16cc#/LL	.	.	.	.	.	.	.	.	.	.	.	.	.	.	.	.	.	.	.	.	.	.	.	.	.
.	.	.	.	16B\	.	16b/yy	.	16b/	.	.	.	.	.	.	.	.	.	.	.	.	.	.	.	.	.	.	.	.	.	.	.	.	.
.	.	.	.	16c#\	.	16cc#/yy	.	16cc#/	.	.	.	.	.	.	.	.	.	.	.	.	.	.	.	.	.	.	.	.	.	.	.	.	.
.	.	.	.	16d\JJ	.	16dd/JJyy	.	16dd/JJ	.	.	.	.	.	.	.	.	.	.	.	.	.	.	.	.	.	.	.	.	.	.	.	.	.
*	*	*clefC4	*	*	*	*	*	*	*	*	*	*	*	*	*	*	*	*	*	*	*	*	*	*	*	*	*	*	*	*	*	*	*
=4	=4	=4	=4	=4	=4	=4	=4	=4	=4	=4	=4	=4	=4	=4	=4	=4	=4	=4	=4	=4	=4	=4	=4	=4	=4	=4	=4	=4	=4	=4	=4	=4	=4
*	*	*	*	*	*	*	*	*	*	*	*	*	*	*	*	*	*	*	*	*	*	*	*	*^	*	*	*	*	*	*	*	*	*
*	*	*2\right	*	*	*	*	*	*	*	*	*	*	*	*	*	*	*	*	*	*	*	*	*	*	*	*	*	*	*	*	*	*	*	*
!	!	!	!LO:DY:b:rj	!	!	!	!	!	!	!	!	!	!	!	!	!	!	!	!	!	!	!	!	!	!	!LO:DY:b:rj	!	!	!	!	!	!	!	!
1r	.	8.f#^>\L	f	16f#^>\LL	.	16ff#^>\LLyy	.	16ff#^>\LL	.	1ryy	1ryy	1r	.	1r	.	1r	.	1r	.	1r	.	1r	.	8.f#/L	8.f#\L	f	2r	.	1r	.	1r	.	2r	.
.	.	.	.	16e\	.	16ee\yy	.	16ee\	.	.	.	.	.	.	.	.	.	.	.	.	.	.	.	.	.	.	.	.	.	.	.	.	.	.
.	.	.	.	16d\	.	16dd\yy	.	16dd\	.	.	.	.	.	.	.	.	.	.	.	.	.	.	.	.	.	.	.	.	.	.	.	.	.	.
.	.	16e\Jk	.	16e\JJ	.	16ee\JJyy	.	16ee\JJ	.	.	.	.	.	.	.	.	.	.	.	.	.	.	.	16e/Jk	16e\Jk	.	.	.	.	.	.	.	.	.
.	.	8.d^>\L	.	16d^>\LL	.	16dd^>\LLyy	.	16dd^>\LL	.	.	.	.	.	.	.	.	.	.	.	.	.	.	.	8.d/L	8.d\L	.	.	.	.	.	.	.	.	.
.	.	.	.	16c#\	.	16cc#\yy	.	16cc#\	.	.	.	.	.	.	.	.	.	.	.	.	.	.	.	.	.	.	.	.	.	.	.	.	.	.
.	.	.	.	16B\	.	16b\yy	.	16b\	.	.	.	.	.	.	.	.	.	.	.	.	.	.	.	.	.	.	.	.	.	.	.	.	.	.
.	.	16c#\Jk	.	16c#\JJ	.	16cc#\JJyy	.	16cc#\JJ	.	.	.	.	.	.	.	.	.	.	.	.	.	.	.	16c#/Jk	16c#\Jk	.	.	.	.	.	.	.	.	.
.	.	16B\LL	.	16B/LL	.	16b^</LLyy	.	16b^</LL	.	.	.	.	.	.	.	.	.	.	.	.	.	.	.	16B/LL	16B\LL	.	4r	.	.	.	.	.	4r	.
.	.	16A\	.	16A/	.	16a/yy	.	16a/	.	.	.	.	.	.	.	.	.	.	.	.	.	.	.	16A/	16A\	.	.	.	.	.	.	.	.	.
.	.	16G#\	.	16G#/	.	16g#/yy	.	16g#/	.	.	.	.	.	.	.	.	.	.	.	.	.	.	.	16G#/	16G#\	.	.	.	.	.	.	.	.	.
.	.	16F#\JJ	.	16F#/JJ	.	16f#/JJyy	.	16f#/JJ	.	.	.	.	.	.	.	.	.	.	.	.	.	.	.	16F#/JJ	16F#\JJ	.	.	.	.	.	.	.	.	.
!	!	!	!	!	!	!	!	!	!	!	!	!	!	!	!	!	!	!	!	!	!	!	!	!	!	!	!	!LO:DY:b:rj	!	!	!	!	!	!LO:DY:b:rj
.	.	16E\LL	.	16E/LL	.	16e/LLyy	.	16e/LL	.	.	.	.	.	.	.	.	.	.	.	.	.	.	.	(>16E/LL	16E\LL	.	(<16e/LL	f	.	.	.	.	(>16ee\LL	f
.	.	16G#\	.	16G#/	.	16g#/yy	.	16g#/	.	.	.	.	.	.	.	.	.	.	.	.	.	.	.	16G#X/	16G#X\	.	16g#/	.	.	.	.	.	16gg#\	.
.	.	16B\	.	16B/	.	16b/yy	.	16b/	.	.	.	.	.	.	.	.	.	.	.	.	.	.	.	16B/	16B\	.	16b/	.	.	.	.	.	16bb\	.
.	.	16e\JJ	.	16e/JJ	.	16ee/JJyy	.	16ee/JJ	.	.	.	.	.	.	.	.	.	.	.	.	.	.	.	16e/JJ)	16e\JJ	.	16ee/JJ)	.	.	.	.	.	16eee\JJ)	.
=5	=5	=5	=5	=5	=5	=5	=5	=5	=5	=5	=5	=5	=5	=5	=5	=5	=5	=5	=5	=5	=5	=5	=5	=5	=5	=5	=5	=5	=5	=5	=5	=5	=5	=5
*	*	*	*	*	*	*	*	*	*	*	*	*	*	*^	*	*	*	*^	*	*	*	*	*	*	*	*	*^	*	*	*	*	*	*	*
*2\right	*	*	*	*	*	*	*	*	*	*	*	*2\right	*	*2\right	*	*	*	*	*2\right	*2\right	*	*	*	*	*	*	*	*	*	*	*	*	*	*	*	*	*
!	!	!	!	!	!	!	!	!	!	!	!	!	!	!	!	!	!	!	!	!	!	!	!	!	!	!	!	!	!LO:TX:a:t=P:problem=akcent bezpośrednio pod 8gg#	!	!	!	!LO:DY:b:rj	!	!LO:DY:b:rj	!	!
8r	.	8g#\	.	8g#\	.	8gg#\	.	8gg#\	.	1ryy	1ryy	8r	.	8r	8ryy	.	8r	.	8r	8r	.	8r	.	8r	.	8g#/	8r	.	8gg#^</	8r	.	8r	f	8r	f	8ggg#\	.
*	*	*clefF4	*	*	*	*	*	*	*	*	*	*tremolo	*	*tremolo	*tremolo	*	*	*	*tremolo	*tremolo	*	*tremolo	*	*tremolo	*	*	*	*	*	*	*	*	*	*	*	*	*
!	!	!	!	!	!	!	!	!	!	!	!	!	!LO:DY:b:rj	!	!	!LO:DY:b:rj	!	!LO:DY:b:rj	!	!	!LO:DY:b:rj	!	!LO:DY:b:rj	!	!LO:DY:b:rj	!	!	!LO:DY:b:rj	!	!	!	!	!	!	!	!	!
8E\L	.	8E\L	.	8ee^>\L	.	8eeL 8b^>\	.	8gg#^>\L	.	.	.	8E\L	f	8E/L	8E\L	f	8eL 8G#^>\	f	8ee/L	8ee\L	f	8eL 8E/	f	8eL 8E/	f	8ryy	8eL 8G#^>\	f	8eeL 8g#^>\	8ryy	.	8gg#L 8ee^>\	.	8gg#^>\L	.	8eee^>\L	.
8E\	.	8E\	.	8ff#^>\	.	8ee 8a^>\	.	8aa^>\	.	.	.	8E\	.	8E/	8E\	.	8f# 8A^>\	.	8ee/	8ee\	.	8e 8E/	.	8e 8E/	.	4ryy	8f# 8A^>\	.	8ff# 8a^>\	4ryy	.	8aa 8ff#^>\	.	8aa^>\	.	8fff#^>\	.
8E\J	.	8E\J	.	8ff##X^>\J	.	8eeJ 8a#X^>\	.	8aa#X^>\J	.	.	.	8E\J	.	8E/J	8E\J	.	8f##XJ 8A#X^>\	.	8ee/J	8ee\J	.	8eJ 8E/	.	8eJ 8E/	.	.	8f##XJ 8A#X^>\	.	8ff##XJ 8a#X^>\	.	.	8aa#XJ 8ff##X^>\	.	8aa#X^>\J	.	8fff##X^>\J	.
*tremolo	*	*tremolo	*	*	*	*	*	*	*	*	*	*	*	*	*	*	*	*	*	*	*	*	*	*	*	*	*	*	*	*	*	*	*	*	*	*	*
8E\L	.	8E\L	.	8gg#^>\L	.	8eeL 8b^>\	.	8bb^>\L	.	.	.	8E\L	.	8E/L	8E\L	.	8g#L 8B^>\	.	8ee/L	8ee\L	.	8eL 8E/	.	8eL 8E/	.	2ryy	8g#L 8B^>\	.	8gg#L 8b^>\	2ryy	.	8bbL 8gg#^>\	.	8bb^>\L	.	8ggg#^>\L	.
8E\	.	8E\	.	8aa^>\	.	8ee 8cc#^>\	.	8ccc#\	.	.	.	8E\	.	8E/	8E\	.	8a 8c#^>\	.	8ee/	8ee\	.	8e 8E/	.	8e 8E/	.	.	8a 8c#^>\	.	8aa 8cc#^>\	.	.	8ccc# 8aa#^>\	.	8ccc#^>\	.	8aaa^>\	.
8E\	.	8E\	.	8gg#^>\	.	8ee 8dd^>\	.	8ddd\	.	.	.	8E\	.	8E/	8E\	.	8d 8B^>\	.	8ee/	8ee\	.	8e 8E/	.	8e 8E/	.	.	8g# 8B^>\	.	8bb 8dd^>\	.	.	8bb 8gg#^>\	.	8ddd^>\	.	8ddd^>\	.
8E\J	.	8E\J	.	8aa#X^>\J	.	8eeJ 8cc#^>\	.	8eee\J	.	.	.	8E\J	.	8E/J	8E\J	.	8eJ 8c#^>\	.	8ee/J	8ee\J	.	8eJ 8E/	.	8eJ 8E/	.	.	8a#XJ 8c#^>\	.	8aa#XJ 8cc#^>\	.	.	8ccc#J 8aa#X^>\	.	8eee^>\J	.	8eee^>\J	.
*Xtremolo	*	*	*	*	*	*	*	*	*	*	*	*Xtremolo	*	*Xtremolo	*Xtremolo	*	*	*	*Xtremolo	*Xtremolo	*	*Xtremolo	*	*Xtremolo	*	*	*	*	*	*	*	*	*	*	*	*	*
*	*	*	*	*	*	*	*	*	*	*	*	*	*	*	*	*	*	*	*	*	*	*	*	*	*	*v	*v	*	*	*	*	*	*	*	*	*	*
*	*	*	*	*	*	*	*	*	*	*	*	*	*	*v	*v	*	*	*	*v	*v	*	*	*	*	*	*	*	*v	*v	*	*	*	*	*	*	*
!!LO:PB:g=original
=6	=6	=6	=6	=6	=6	=6	=6	=6	=6	=6	=6	=6	=6	=6	=6	=6	=6	=6	=6	=6	=6	=6	=6	=6	=6	=6	=6	=6	=6	=6	=6	=6	=6
*	*	*	*	*	*	*	*	*	*	*^	*^	*	*	*	*	*	*	*	*	*	*	*	*	*	*	*	*	*	*	*	*	*	*
*	*	*	*	*tremolo	*	*tremolo	*	*tremolo	*	*	*2\right	*	*	*	*	*	*	*	*	*	*	*	*	*	*	*	*	*	*	*	*	*	*	*	*
!	!LO:DY:b:t=sfff:rj	!	!LO:DY:b:t=sfff:rj	!	!LO:DY:b:t=sfff:rj	!	!LO:DY:b:t=sfff:rj	!	!LO:DY:b:t=sfff:rj	!	!	!	!	!	!LO:DY:b:t=sfff:rj	!	!LO:DY:b:t=sfff:rj	!	!LO:DY:b:t=sfff:rj	!	!LO:DY:b:t=sfff:rj	!	!LO:DY:b:t=sfff:rj	!	!LO:DY:b:t=sfff:rj	!	!LO:DY:b:t=sfff:rj	!	!LO:DY:b:t=sfff:rj	!	!LO:DY:b:t=sfff:rj	!	!LO:DY:b:t=sfff:rj	!	!LO:DY:b:t=sfff:rj
1E	sf	32ELLL 32BB/	sf	32gg#\LLL	sf	32bbLLL 32dd\	sf	64fff#\LLLL	sf	2c/	2c\	1ccTT>	1ccTT<	1Ett>	sf	1E 1EE	sf	1g# 1B	sf	1ff# 1dd	sf	1d 1E	sf	1g#X 1BX	sf	1b 1d	sf	1bb 1dd	sf	1ddd 1bb	sf	1fff#	sf	1fff#	sf
.	.	.	.	.	.	.	.	64fff#\	.	.	.	.	.	.	.	.	.	.	.	.	.	.	.	.	.	.	.	.	.	.	.	.	.	.	.
.	.	32E 32BB/	.	32gg#\	.	32bb 32dd\	.	64fff#\	.	.	.	.	.	.	.	.	.	.	.	.	.	.	.	.	.	.	.	.	.	.	.	.	.	.	.
.	.	.	.	.	.	.	.	64fff#\	.	.	.	.	.	.	.	.	.	.	.	.	.	.	.	.	.	.	.	.	.	.	.	.	.	.	.
.	.	32E 32BB/	.	32gg#\	.	32bb 32dd\	.	64fff#\	.	.	.	.	.	.	.	.	.	.	.	.	.	.	.	.	.	.	.	.	.	.	.	.	.	.	.
.	.	.	.	.	.	.	.	64fff#\	.	.	.	.	.	.	.	.	.	.	.	.	.	.	.	.	.	.	.	.	.	.	.	.	.	.	.
.	.	32E 32BB/	.	32gg#\	.	32bb 32dd\	.	64fff#\	.	.	.	.	.	.	.	.	.	.	.	.	.	.	.	.	.	.	.	.	.	.	.	.	.	.	.
.	.	.	.	.	.	.	.	64fff#\	.	.	.	.	.	.	.	.	.	.	.	.	.	.	.	.	.	.	.	.	.	.	.	.	.	.	.
.	.	32E 32BB/	.	32gg#\	.	32bb 32dd\	.	64fff#\	.	.	.	.	.	.	.	.	.	.	.	.	.	.	.	.	.	.	.	.	.	.	.	.	.	.	.
.	.	.	.	.	.	.	.	64fff#\	.	.	.	.	.	.	.	.	.	.	.	.	.	.	.	.	.	.	.	.	.	.	.	.	.	.	.
.	.	32E 32BB/	.	32gg#\	.	32bb 32dd\	.	64fff#\	.	.	.	.	.	.	.	.	.	.	.	.	.	.	.	.	.	.	.	.	.	.	.	.	.	.	.
.	.	.	.	.	.	.	.	64fff#\	.	.	.	.	.	.	.	.	.	.	.	.	.	.	.	.	.	.	.	.	.	.	.	.	.	.	.
.	.	32E 32BB/	.	32gg#\	.	32bb 32dd\	.	64fff#\	.	.	.	.	.	.	.	.	.	.	.	.	.	.	.	.	.	.	.	.	.	.	.	.	.	.	.
.	.	.	.	.	.	.	.	64fff#\	.	.	.	.	.	.	.	.	.	.	.	.	.	.	.	.	.	.	.	.	.	.	.	.	.	.	.
.	.	32E 32BB/	.	32gg#\	.	32bb 32dd\	.	64fff#\	.	.	.	.	.	.	.	.	.	.	.	.	.	.	.	.	.	.	.	.	.	.	.	.	.	.	.
.	.	.	.	.	.	.	.	64fff#\	.	.	.	.	.	.	.	.	.	.	.	.	.	.	.	.	.	.	.	.	.	.	.	.	.	.	.
.	.	32E 32BB/	.	32gg#\	.	32bb 32dd\	.	64fff#\	.	.	.	.	.	.	.	.	.	.	.	.	.	.	.	.	.	.	.	.	.	.	.	.	.	.	.
.	.	.	.	.	.	.	.	64fff#\	.	.	.	.	.	.	.	.	.	.	.	.	.	.	.	.	.	.	.	.	.	.	.	.	.	.	.
.	.	32E 32BB/	.	32gg#\	.	32bb 32dd\	.	64fff#\	.	.	.	.	.	.	.	.	.	.	.	.	.	.	.	.	.	.	.	.	.	.	.	.	.	.	.
.	.	.	.	.	.	.	.	64fff#\	.	.	.	.	.	.	.	.	.	.	.	.	.	.	.	.	.	.	.	.	.	.	.	.	.	.	.
.	.	32E 32BB/	.	32gg#\	.	32bb 32dd\	.	64fff#\	.	.	.	.	.	.	.	.	.	.	.	.	.	.	.	.	.	.	.	.	.	.	.	.	.	.	.
.	.	.	.	.	.	.	.	64fff#\	.	.	.	.	.	.	.	.	.	.	.	.	.	.	.	.	.	.	.	.	.	.	.	.	.	.	.
.	.	32E 32BB/	.	32gg#\	.	32bb 32dd\	.	64fff#\	.	.	.	.	.	.	.	.	.	.	.	.	.	.	.	.	.	.	.	.	.	.	.	.	.	.	.
.	.	.	.	.	.	.	.	64fff#\	.	.	.	.	.	.	.	.	.	.	.	.	.	.	.	.	.	.	.	.	.	.	.	.	.	.	.
.	.	32E 32BB/	.	32gg#\	.	32bb 32dd\	.	64fff#\	.	.	.	.	.	.	.	.	.	.	.	.	.	.	.	.	.	.	.	.	.	.	.	.	.	.	.
.	.	.	.	.	.	.	.	64fff#\	.	.	.	.	.	.	.	.	.	.	.	.	.	.	.	.	.	.	.	.	.	.	.	.	.	.	.
.	.	32E 32BB/	.	32gg#\	.	32bb 32dd\	.	64fff#\	.	.	.	.	.	.	.	.	.	.	.	.	.	.	.	.	.	.	.	.	.	.	.	.	.	.	.
.	.	.	.	.	.	.	.	64fff#\	.	.	.	.	.	.	.	.	.	.	.	.	.	.	.	.	.	.	.	.	.	.	.	.	.	.	.
.	.	32E 32BB/	.	32gg#\	.	32bb 32dd\	.	64fff#\	.	.	.	.	.	.	.	.	.	.	.	.	.	.	.	.	.	.	.	.	.	.	.	.	.	.	.
.	.	.	.	.	.	.	.	64fff#\	.	.	.	.	.	.	.	.	.	.	.	.	.	.	.	.	.	.	.	.	.	.	.	.	.	.	.
.	.	32E 32BB/	.	32gg#\	.	32bb 32dd\	.	64fff#\	.	.	.	.	.	.	.	.	.	.	.	.	.	.	.	.	.	.	.	.	.	.	.	.	.	.	.
.	.	.	.	.	.	.	.	64fff#\	.	.	.	.	.	.	.	.	.	.	.	.	.	.	.	.	.	.	.	.	.	.	.	.	.	.	.
.	.	32E 32BB/	.	32gg#\	.	32bb 32dd\	.	64fff#\	.	2ryy	2r	.	.	.	.	.	.	.	.	.	.	.	.	.	.	.	.	.	.	.	.	.	.	.	.
.	.	.	.	.	.	.	.	64fff#\	.	.	.	.	.	.	.	.	.	.	.	.	.	.	.	.	.	.	.	.	.	.	.	.	.	.	.
.	.	32E 32BB/	.	32gg#\	.	32bb 32dd\	.	64fff#\	.	.	.	.	.	.	.	.	.	.	.	.	.	.	.	.	.	.	.	.	.	.	.	.	.	.	.
.	.	.	.	.	.	.	.	64fff#\	.	.	.	.	.	.	.	.	.	.	.	.	.	.	.	.	.	.	.	.	.	.	.	.	.	.	.
.	.	32E 32BB/	.	32gg#\	.	32bb 32dd\	.	64fff#\	.	.	.	.	.	.	.	.	.	.	.	.	.	.	.	.	.	.	.	.	.	.	.	.	.	.	.
.	.	.	.	.	.	.	.	64fff#\	.	.	.	.	.	.	.	.	.	.	.	.	.	.	.	.	.	.	.	.	.	.	.	.	.	.	.
.	.	32E 32BB/	.	32gg#\	.	32bb 32dd\	.	64fff#\	.	.	.	.	.	.	.	.	.	.	.	.	.	.	.	.	.	.	.	.	.	.	.	.	.	.	.
.	.	.	.	.	.	.	.	64fff#\	.	.	.	.	.	.	.	.	.	.	.	.	.	.	.	.	.	.	.	.	.	.	.	.	.	.	.
.	.	32E 32BB/	.	32gg#\	.	32bb 32dd\	.	64fff#\	.	.	.	.	.	.	.	.	.	.	.	.	.	.	.	.	.	.	.	.	.	.	.	.	.	.	.
.	.	.	.	.	.	.	.	64fff#\	.	.	.	.	.	.	.	.	.	.	.	.	.	.	.	.	.	.	.	.	.	.	.	.	.	.	.
.	.	32E 32BB/	.	32gg#\	.	32bb 32dd\	.	64fff#\	.	.	.	.	.	.	.	.	.	.	.	.	.	.	.	.	.	.	.	.	.	.	.	.	.	.	.
.	.	.	.	.	.	.	.	64fff#\	.	.	.	.	.	.	.	.	.	.	.	.	.	.	.	.	.	.	.	.	.	.	.	.	.	.	.
.	.	32E 32BB/	.	32gg#\	.	32bb 32dd\	.	64fff#\	.	.	.	.	.	.	.	.	.	.	.	.	.	.	.	.	.	.	.	.	.	.	.	.	.	.	.
.	.	.	.	.	.	.	.	64fff#\	.	.	.	.	.	.	.	.	.	.	.	.	.	.	.	.	.	.	.	.	.	.	.	.	.	.	.
.	.	32E 32BB/	.	32gg#\	.	32bb 32dd\	.	64fff#\	.	.	.	.	.	.	.	.	.	.	.	.	.	.	.	.	.	.	.	.	.	.	.	.	.	.	.
.	.	.	.	.	.	.	.	64fff#\	.	.	.	.	.	.	.	.	.	.	.	.	.	.	.	.	.	.	.	.	.	.	.	.	.	.	.
.	.	32E 32BB/	.	32gg#\	.	32bb 32dd\	.	64fff#\	.	.	.	.	.	.	.	.	.	.	.	.	.	.	.	.	.	.	.	.	.	.	.	.	.	.	.
.	.	.	.	.	.	.	.	64fff#\	.	.	.	.	.	.	.	.	.	.	.	.	.	.	.	.	.	.	.	.	.	.	.	.	.	.	.
.	.	32E 32BB/	.	32gg#\	.	32bb 32dd\	.	64fff#\	.	.	.	.	.	.	.	.	.	.	.	.	.	.	.	.	.	.	.	.	.	.	.	.	.	.	.
.	.	.	.	.	.	.	.	64fff#\	.	.	.	.	.	.	.	.	.	.	.	.	.	.	.	.	.	.	.	.	.	.	.	.	.	.	.
.	.	32E 32BB/	.	32gg#\	.	32bb 32dd\	.	64fff#\	.	.	.	.	.	.	.	.	.	.	.	.	.	.	.	.	.	.	.	.	.	.	.	.	.	.	.
.	.	.	.	.	.	.	.	64fff#\	.	.	.	.	.	.	.	.	.	.	.	.	.	.	.	.	.	.	.	.	.	.	.	.	.	.	.
.	.	32E 32BB/	.	32gg#\	.	32bb 32dd\	.	64fff#\	.	.	.	.	.	.	.	.	.	.	.	.	.	.	.	.	.	.	.	.	.	.	.	.	.	.	.
.	.	.	.	.	.	.	.	64fff#\	.	.	.	.	.	.	.	.	.	.	.	.	.	.	.	.	.	.	.	.	.	.	.	.	.	.	.
.	.	32E 32BB/	.	32gg#\	.	32bb 32dd\	.	64fff#\	.	.	.	.	.	.	.	.	.	.	.	.	.	.	.	.	.	.	.	.	.	.	.	.	.	.	.
.	.	.	.	.	.	.	.	64fff#\	.	.	.	.	.	.	.	.	.	.	.	.	.	.	.	.	.	.	.	.	.	.	.	.	.	.	.
.	.	32E 32BB/	.	32gg#\	.	32bb 32dd\	.	64fff#\	.	.	.	.	.	.	.	.	.	.	.	.	.	.	.	.	.	.	.	.	.	.	.	.	.	.	.
.	.	.	.	.	.	.	.	64fff#\	.	.	.	.	.	.	.	.	.	.	.	.	.	.	.	.	.	.	.	.	.	.	.	.	.	.	.
.	.	32E 32BB/	.	32gg#\	.	32bb 32dd\	.	64fff#\	.	.	.	.	.	.	.	.	.	.	.	.	.	.	.	.	.	.	.	.	.	.	.	.	.	.	.
.	.	.	.	.	.	.	.	64fff#\	.	.	.	.	.	.	.	.	.	.	.	.	.	.	.	.	.	.	.	.	.	.	.	.	.	.	.
.	.	32EJJJ 32BB/	.	32gg#\JJJ	.	32bbJJJ 32dd\	.	64fff#\	.	.	.	.	.	.	.	.	.	.	.	.	.	.	.	.	.	.	.	.	.	.	.	.	.	.	.
.	.	.	.	.	.	.	.	64fff#\JJJJ	.	.	.	.	.	.	.	.	.	.	.	.	.	.	.	.	.	.	.	.	.	.	.	.	.	.	.
*	*	*Xtremolo	*	*Xtremolo	*	*Xtremolo	*	*Xtremolo	*	*	*	*	*	*	*	*	*	*	*	*	*	*	*	*	*	*	*	*	*	*	*	*	*	*	*
*	*	*	*	*	*	*	*	*	*	*v	*v	*	*	*	*	*	*	*	*	*	*	*	*	*	*	*	*	*	*	*	*	*	*	*	*
=7	=7	=7	=7	=7	=7	=7	=7	=7	=7	=7	=7	=7	=7	=7	=7	=7	=7	=7	=7	=7	=7	=7	=7	=7	=7	=7	=7	=7	=7	=7	=7	=7	=7	=7
*	*	*	*	*	*	*	*	*	*	*	*	*	*	*	*^	*	*	*	*^	*	*	*	*	*	*	*	*^	*	*^	*	*	*	*	*
!	!	!	!	!	!	!	!	!	!	!	!	!	!	!	!	!	!	!	!	!	!	!	!	!	!	!	!	!	!	!	!	!	!	!	!LO:TX:a:i:t=Col V.	!	!LO:TX:a:i:t=Col V. I.	!
8E\L	.	8EL 8BB/	.	8.ff#^>\L	.	8bbL 8dd\	.	8.fff#^>\L	.	1r	8cc/	8cc\	8.E\L	.	8.E/L	4EE\	.	8.g#L 8.B\	.	8.ff#L^>/	8.dd\L	.	8.dL 8.E/	.	8.g#XL 8.BX/	.	8.g#L 8.B\	.	8bbL 8dd\	2.ryy	.	8bbL 8dd\	2.ryy	.	8.fff#^>\Lyy	.	8.fff#^>\Lyy	.
16r	.	16r	.	.	.	16r	.	.	.	.	8r	8ryy	.	.	.	.	.	.	.	.	.	.	.	.	.	.	.	.	16r	.	.	16r	.	.	.	.	.	.
16E\Jk	.	16E/Jk	.	16ee\Jk	.	16bbJk 16dd\	.	16eee\Jk	.	.	.	.	16E\Jk	.	16E/Jk	.	.	16g#Jk 16B\	.	16eeJk/	16dd\Jk	.	16dJk 16E/	.	16g#Jk 16B/	.	16g#Jk 16B\	.	16bbJk 16dd\	.	.	16bbJk 16dd\	.	.	16eee\Jkyy	.	16eee\Jkyy	.
*rep	*	*rep	*	*rep	*	*rep	*	*rep	*	*	*	*	*rep	*	*rep	*	*	*rep	*	*	*	*	*rep	*	*rep	*	*rep	*	*rep	*	*	*rep	*	*	*rep	*	*	*
8E\L	.	8EL 8BB/	.	8.ff#^>\L	.	8bbL 8dd\	.	8.fff#^>\L	.	.	4r	4ryy	8.E\L	.	8.E/L	4EE\	.	8.g#L 8.B\	.	8.ff#^>/L	8.dd\L	.	8.dL 8.E/	.	8.g#L 8.B/	.	8.g#L 8.B\	.	8bbL 8dd\	.	.	8bbL 8dd\	.	.	8.fff#^>\Lyy	.	8.fff#^>\Lyy	.
16r	.	16r	.	.	.	16r	.	.	.	.	.	.	.	.	.	.	.	.	.	.	.	.	.	.	.	.	.	.	16r	.	.	16r	.	.	.	.	.	.
16E\Jk	.	16E/Jk	.	16ee\Jk	.	16bbJk 16dd\	.	16eee\Jk	.	.	.	.	16E\Jk	.	16E/Jk	.	.	16g#Jk 16B\	.	16eeJk/	16dd\Jk	.	16dJk 16E/	.	16g#Jk 16B/	.	16g#Jk 16B\	.	16bbJk 16dd\	.	.	16bbJk 16dd\	.	.	16eee\Jkyy	.	16eee\Jkyy	.
*Xrep	*	*Xrep	*	*Xrep	*	*Xrep	*	*Xrep	*	*	*	*	*Xrep	*	*Xrep	*	*	*Xrep	*	*	*	*	*Xrep	*	*Xrep	*	*Xrep	*	*Xrep	*	*	*Xrep	*	*	*Xrep	*	*	*
*rep	*	*rep	*	*	*	*	*	*	*	*	*	*	*rep	*	*rep	*	*	*rep	*	*	*	*	*rep	*	*rep	*	*rep	*	*rep	*	*	*rep	*	*	*	*	*	*
8E\L	.	8EL 8BB/	.	16ff#\LL	.	8bbL 8dd\	.	16fff#\LL	.	.	2r	2ryy	8.E\L	.	8.E/L	4EE\	.	8.g#L 8.B\	.	8.dd/L	8.b\L	.	8.dL 8.E/	.	8.g#L 8.B/	.	8.g#L 8.B\	.	8bbL 8dd\	.	.	8bbL 8dd\	.	.	16fff#\LLyy	.	16fff#\LLyy	.
.	.	.	.	16ee\	.	.	.	16eee\	.	.	.	.	.	.	.	.	.	.	.	.	.	.	.	.	.	.	.	.	.	.	.	.	.	.	16eee\yy	.	16eee\yy	.
16r	.	16r	.	16dd\	.	16ddd\L	.	16ddd\	.	.	.	.	.	.	.	.	.	.	.	.	.	.	.	.	.	.	.	.	16r	.	.	16r	.	.	16ddd\yy	.	16ddd\yy	.
16E\Jk	.	16E/Jk	.	16cc#\JJ	.	16ccc#\JJ	.	16ccc#\JJ	.	.	.	.	16E\Jk	.	16E/Jk	.	.	16g#Jk 16B\	.	16dd/Jk	16b\Jk	.	16dJk 16E/	.	16g#Jk 16B/	.	16g#Jk 16B\	.	16bbJk 16dd\	.	.	16bbJk 16dd\	.	.	16ccc#\JJyy	.	16ccc#\JJyy	.
*Xrep	*	*Xrep	*	*	*	*	*	*	*	*	*	*	*Xrep	*	*Xrep	*	*	*Xrep	*	*	*	*	*Xrep	*	*Xrep	*	*Xrep	*	*Xrep	*	*	*Xrep	*	*	*	*	*	*
*rep	*	*rep	*	*	*	*	*	*	*	*	*	*	*rep	*	*rep	*	*	*rep	*	*	*	*	*rep	*	*rep	*	*rep	*	*	*	*	*	*	*	*	*	*	*
8E\L	.	8EL 8BB/	.	16b\LL	.	16bb\LL	.	16bb\LL	.	.	.	.	8.E\L	.	8.E/L	4EE\	.	8.g#L 8.B\	.	8.b/L	8.g#\L	.	8.dL 8.E/	.	8.g#L 8.B/	.	8.g#L 8.B\	.	16bb/LL	8dd\L	.	16bb/LL	8dd\L	.	16bb\LLyy	.	16bb\LLyy	.
.	.	.	.	16a\	.	16aa\	.	16aa\	.	.	.	.	.	.	.	.	.	.	.	.	.	.	.	.	.	.	.	.	16aa/	.	.	16aa/	.	.	16aa\yy	.	16aa\yy	.
16r	.	16r	.	16g#\	.	16gg#\	.	16gg#\	.	.	.	.	.	.	.	.	.	.	.	.	.	.	.	.	.	.	.	.	16gg#/	16r	.	16gg#/	16r	.	16gg#\yy	.	16gg#\yy	.
16E\Jk	.	16E/Jk	.	16b\JJ	.	16bb\JJ	.	16bb\JJ	.	.	.	.	16E\Jk	.	16E/Jk	.	.	16g#Jk 16B\	.	16b/Jk	16g#\Jk	.	16dJk 16E/	.	16g#Jk 16B/	.	16g#Jk 16B\	.	16bb/JJ	16dd\Jk	.	16bb/JJ	16dd\Jk	.	16bb\JJyy	.	16bb\JJyy	.
*Xrep	*	*Xrep	*	*	*	*	*	*	*	*	*	*	*Xrep	*	*Xrep	*	*	*Xrep	*	*	*	*	*Xrep	*	*Xrep	*	*Xrep	*	*	*	*	*	*	*	*	*	*	*
*	*	*	*	*	*	*	*	*	*	*	*	*	*	*	*	*	*	*	*	*	*	*	*	*	*	*	*	*	*v	*v	*	*	*	*	*	*	*	*
*	*	*	*	*	*	*	*	*	*	*	*v	*v	*	*	*	*	*	*	*	*v	*v	*	*	*	*	*	*	*	*	*	*v	*v	*	*	*	*	*
=8	=8	=8	=8	=8	=8	=8	=8	=8	=8	=8	=8	=8	=8	=8	=8	=8	=8	=8	=8	=8	=8	=8	=8	=8	=8	=8	=8	=8	=8	=8	=8	=8	=8	=8
4E\	.	4E\	.	4ee\	.	4gg#\	.	4eee\	.	1ryy	1ryy	4E\	.	4E/	4EE\	.	4g# 4B\	.	4ee 4g#\	.	4d 4E/	.	4g#X 4BX/	.	4g# 4B\	.	4gg# 4ee\	.	4bb 4ee\	.	4eee\yy	.	4eee\yy	.
8.r	.	8.r	.	8.r	.	8.r	.	8.r	.	.	.	8.r	.	8.r	4rEE	.	8.r	.	8.r	.	8.r	.	8.r	.	8.r	.	8.r	.	8.r	.	8.ryy	.	8.ryy	.
16E\	.	16E\	.	16ee 16e\	.	16ee 16b\	.	16gg# 16b\	.	.	.	16E\	.	16E/	.	.	16g# 16B\	.	16ee 16g#\	.	16e 16E/	.	16g# 16B/	.	16g# 16B\	.	16gg# 16ee\	.	16bb 16ee\	.	16gg#\	.	16eee\	.
4E\	.	4E\	.	4ee 4e\	.	4ee 4b\	.	4gg# 4b\	.	.	.	4E\	.	4E/	4EE\	.	4g# 4B\	.	4ee 4g#\	.	4e 4E/	.	4g# 4B/	.	4g# 4B\	.	4gg# 4ee\	.	4bb 4ee\	.	4gg#\	.	4eee\	.
8.r	.	8.r	.	8.r	.	8.r	.	8.r	.	.	.	8.r	.	8.r	4rEE	.	8.r	.	8.r	.	8.r	.	8.r	.	8.r	.	8.r	.	8.r	.	8.r	.	8.r	.
16E\	.	16EE/	.	16ee 16e\	.	16gg# 16b\	.	16bb\	.	.	.	16E\	.	16E/	.	.	16g# 16B\	.	16ee 16g#\	.	16e 16E/	.	16g# 16B/	.	16g# 16B\	.	16gg# 16ee\	.	16bb 16ee\	.	16bb\	.	16ggg#\	.
=9	=9	=9	=9	=9	=9	=9	=9	=9	=9	=9	=9	=9	=9	=9	=9	=9	=9	=9	=9	=9	=9	=9	=9	=9	=9	=9	=9	=9	=9	=9	=9	=9	=9	=9
4.E\	.	4.EE/	.	4.ee 4.e\	.	4.gg# 4.b\	.	4.eee\	.	1ryy	1ryy	4E\	.	4.E/	4.EE\	.	4.g# 4.B\	.	4.ee 4.g#\	.	4.e 4.E/	.	4.g#X 4.BX/	.	4.g# 4.B\	.	4.gg# 4.ee\	.	4.bb 4.ee\	.	4.eee\	.	4.ggg#\	.
.	.	.	.	.	.	.	.	.	.	.	.	4r	.	.	.	.	.	.	.	.	.	.	.	.	.	.	.	.	.	.	.	.	.	.
!	!	!	!	!	!	!	!	!	!	!	!	!	!	!LO:N:vis=8.	!	!	!LO:N:vis=8.	!	!	!	!	!	!	!	!	!	!	!	!	!	!	!	!	!
8r	.	8r	.	8r	.	8r	.	8r	.	.	.	.	.	8r	8ryy	.	8r	.	8r	.	8r	.	8r	.	8r	.	8r	.	8r	.	8r	.	8r	.
2r;>	.	2r;>	.	2r;>	.	2r;>	.	2r;>	.	.	.	2r;>	.	2r;>	2ryy	.	2r;>	.	2r;>	.	2r;>	.	2r;>	.	2r;>	.	2r;>	.	2r;>	.	2r;>	.	2r;>	.
!	!	!	!	!	!	!	!	!LO:TX:a:t=3/8	!	!	!	!	!	!	!	!	!	!	!	!	!LO:TX:a:t=3/8	!	!	!	!	!	!LO:TX:a:t=3/8	!	!	!	!	!	!LO:TX:a:t=3/8	!
*	*	*	*	*	*	*	*	*	*	*	*	*	*	*v	*v	*	*	*	*	*	*	*	*	*	*	*	*	*	*	*	*	*	*	*
==	==	==	==	==	==	==	==	==	==	==	==	==	==	==	==	==	==	==	==	==	==	==	==	==	==	==	==	==	==	==	==	==	==
*-	*-	*-	*-	*-	*-	*-	*-	*-	*-	*-	*-	*-	*-	*-	*-	*-	*-	*-	*-	*-	*-	*-	*-	*-	*-	*-	*-	*-	*-	*-	*-	*-	*-
!!!system-decoration: [(s1,s2,s3,s4,s5{s6,s7}s8{s9,s10}s11,s12,s13,s14,s15,s16,s17,s18)]
!!!RDF**kern: > = above
!!!RDF**kern: < = below
!!!ENC: Andrzej Gręziak
!!!END: 2021-09-06
!!!ENC: Antoni Szymański
!!!END: 2021-10-10
